packages/foundations/assets/icons/functional/images/devices/printer_32.svg

<svg width="32" height="32" viewBox="0 0 32 32" fill="none" xmlns="http://www.w3.org/2000/svg">
<g clip-path="url(#clip0_185_772)">
<path fill-rule="evenodd" clip-rule="evenodd" d="M22 2C23.0937 2 24 2.9058 24 4V6H27C28.6562 6 30 7.3432 30 9V19C30 20.6565 28.6562 22 27 22H24V28C24 29.0942 23.0937 30 22 30H10C8.9062 30 8 29.0942 8 28V22H5C3.3437 22 2 20.6565 2 19V9C2 7.3435 3.3437 6 5 6H8V4C8 2.9058 8.9062 2 10 2H22ZM22 18H10V28H22V18ZM27 8H5C4.4375 8 4 8.4366 4 9V19C4 19.5634 4.4375 20 5 20H8V18C8 16.9058 8.9062 16 10 16H22C23.0937 16 24 16.9058 24 18V20H27C27.5625 20 28 19.5634 28 19V9C28 8.4366 27.5625 8 27 8ZM22 4H10V6H22V4ZM8 11C8 10.4375 8.4375 10 9 10H13C13.5625 10 14 10.4375 14 11C14 11.5625 13.5625 12 13 12H9C8.4375 12 8 11.5625 8 11ZM12 25C12 24.4375 12.4375 24 13 24H19C19.5625 24 20 24.4375 20 25C20 25.5625 19.5625 26 19 26H13C12.4375 26 12 25.5625 12 25ZM12 21C12 20.4375 12.4375 20 13 20H19C19.5625 20 20 20.4375 20 21C20 21.5625 19.5625 22 19 22H13C12.4375 22 12 21.5625 12 21Z" fill="#1A1C1F"/>
</g>
<defs>
<clipPath id="clip0_185_772">
<rect width="32" height="32" fill="white"/>
</clipPath>
</defs>
</svg>

<svg xmlns="http://www.w3.org/2000/svg" width="32" height="32" fill="none"><g clip-path="url(#a)"><path fill="#1A1C1F" fill-rule="evenodd" d="M22 2c1.094 0 2 .906 2 2v2h3a3 3 0 0 1 3 3v10a3 3 0 0 1-3 3h-3v6c0 1.094-.906 2-2 2H10c-1.094 0-2-.906-2-2v-6H5a3 3 0 0 1-3-3V9a3 3 0 0 1 3-3h3V4c0-1.094.906-2 2-2zm0 16H10v10h12zm5-10H5c-.562 0-1 .437-1 1v10c0 .563.438 1 1 1h3v-2c0-1.094.906-2 2-2h12c1.094 0 2 .906 2 2v2h3c.563 0 1-.437 1-1V9c0-.563-.437-1-1-1m-5-4H10v2h12zM8 11c0-.562.438-1 1-1h4c.563 0 1 .438 1 1s-.437 1-1 1H9c-.562 0-1-.437-1-1m4 14c0-.562.438-1 1-1h6c.563 0 1 .438 1 1s-.437 1-1 1h-6c-.562 0-1-.437-1-1m0-4c0-.562.438-1 1-1h6c.563 0 1 .438 1 1s-.437 1-1 1h-6c-.562 0-1-.437-1-1" clip-rule="evenodd"/></g><defs><clipPath id="a"><path fill="#fff" d="M0 0h32v32H0z"/></clipPath></defs></svg>
